X:1
T:Title
%%score { ( 1 3 ) | 2 }
L:1/8
M:4/4
K:Ab
V:1 treble nm="Grand Piano"
V:3 treble 
V:2 bass 
V:1
 z4 z2[Q:1/4=100] [CE]>[DF] | [CA]2 [DA]2 [CA]>[CE] [A,C]>[B,D] | [CE]2 [DF]2 [CE]2 [EA]>B | %3
 c2 c2 c>B [EA]>[Ec] | [EB]2 [=DB]2 B2 c>B | [CA]2 [DA]2 [CA]>[CE] [A,C]>[B,D] | %6
 [CE]2 [DF]2 [CE]2 [Ec]>[Ec] | [EB]6 [=DA]>[DF] | E4 d4 | c6 z2 | d6 z2 | z2 d2 z2 d2 | c6 z2 | %13
 e>=d e>f e2 [Ec]2 | B2 B2 F2 [Fd]>[Fd] | c6 B>B |[M:3/4] [CA]6 |] %17
V:2
 z4 z2 [A,,A,]>[A,,A,] | [A,,E,]2 [A,,F,]2 [A,,E,]>[A,,E,] [A,,E,]>[A,,E,] | %2
 [A,,A,]2 [A,,A,]2 [A,,A,]2 [C,A,]>[E,G,E] | [A,E]2 [A,E]2 [A,E]>[E,G,E] [C,A,]>[A,,A,] | %4
 [E,G,]2 [B,,F,]2 [E,G,E]2 [E,G,E]>[E,G,=D] | [A,,A,]2 [A,,F,]2 [A,,E,]>[A,,A,] [A,,E,]>[A,,E,] | %6
 [A,,A,]2 [A,,A,]2 [A,,A,]2 [A,,A,]>[A,,A,] | [B,,G,]6 [B,,B,]>[B,,A,] | %8
 [E,G,]4[K:treble] [G,B,G]4 | [A,E]2 A,>A, A,2 [A,F]>[A,EA] | %10
 [B,EG]>[B,E] [B,E]>[B,E] [B,E]2 [A,EF]>[A,EF] | %11
 [G,E]2 [G,E]>[F,E] [E,B,]2[K:treble] [G,B,F]>[G,B,] | %12
 [A,E]>[A,,A,] [A,,A,]>[A,,A,] [A,,A,]2[K:treble] [A,E]>[A,B,E] | %13
 [A,CA]>[A,_CA] [A,=CA]>[A,DA] [A,CA]2[K:bass] [A,,A,]2 | %14
 [D,F,D]2 [D,F,D]2 [D,A,D]2 [D,A,]>[D,A,] | [E,A,E]6 [E,G,D]>[E,G,D] |[M:3/4] [A,,A,]6 |] %17
V:3
 x8 | x8 | x8 | x8 | x8 | x8 | x8 | x8 | x8 | z2 E>F E2 c>c | z z/ G/ B>A G2 d>d | %11
 [Bd]2 B>A [Ge]2 z z/ F/ | z z/ A/ G>F E2 c>d | x8 | x8 | x8 |[M:3/4] x6 |] %17

